X:88
T:Miss Monaghan's
S:Learned from Joe, and Tim at Tigin session 1/23/16
R:Reel
M:4/4
K:D
D2ED EFAF | ABBA FABc | d3B ABde | fede fee2 |
D2ED EFAF | ABBA FABc | d3B ABdB | AFEG FDD2 :|
|: faab afdf | gdfd edBc | dedB ABde | fede fee2 |
faab afdf gdfd edBc | dedB ABdB | AFEG FDD2 :|

